icons/slim.svg

<svg xmlns="http://www.w3.org/2000/svg" viewBox="0 0 256 250.981">
  <path fill="#729544" d="M50.424 22.748c-1.482 3.497-3.152 6.929-4.41 10.505-3.051 8.676-3.826 17.64-3.062 26.788.608 7.268 2.018 14.332 4.826 21.08 3.864 9.288 9.938 16.906 17.66 23.268 7.593 6.253 16.108 10.984 24.988 15.102 11.174 5.18 22.757 9.309 34.375 13.355 12.112 4.217 24.07 8.82 35.42 14.862 7.737 4.119 15.03 8.874 21.235 15.143 7.72 7.799 12.345 17.088 13.743 28.03 1.832 14.346-2.33 26.74-11.881 37.408-9.081 10.143-20.523 16.416-33.538 19.968-10.037 2.74-20.248 3.336-30.57 2.134-20.374-2.374-38.283-10.674-54.564-22.824-2.723-2.033-5.27-4.303-7.897-6.465-.342-.282-.666-.588-1.014-.863-2.038-1.61-4.026-1.716-6.092-.153-1.105.836-2.042 1.892-3.2 2.985-2.478-2.251-5.094-4.48-7.545-6.875-17.022-16.64-28.678-36.433-34.762-59.47-2.282-8.64-3.592-17.43-3.995-26.362C-.93 106.693 4.08 84.393 15.304 63.53c8.622-16.025 20.21-29.564 34.617-40.687.114-.088.253-.143.38-.214.042.039.083.079.123.119"/>
  <path fill="#93bd5a" d="M208.879 223.173c.993-2.463 2.073-4.896 2.963-7.395 2.077-5.828 3.072-11.854 3.117-18.044.064-8.648-1.086-17.094-4.081-25.245-3.234-8.804-8.39-16.344-15.07-22.871-7.452-7.28-16.104-12.857-25.276-17.68-12.957-6.812-26.59-12.016-40.38-16.822-9.28-3.233-18.638-6.244-27.638-10.23-8.72-3.86-17.104-8.29-24.423-14.504-7.065-5.997-12.433-13.202-15.008-22.19-4.76-16.61-2.09-31.91 8.642-45.591C77.658 15.036 85.34 9.746 94.163 6.059c7.564-3.161 15.478-4.86 23.625-5.6 5.724-.52 11.45-.645 17.173-.132 8.506.762 16.758 2.72 24.799 5.574 9.02 3.2 17.614 7.289 25.682 12.46.558.358 1.153.669 1.759.938 2.12.94 4.074.633 5.714-1.001.85-.848 1.536-1.863 2.407-2.94 2.146 1.44 4.41 2.887 6.599 4.44 15.34 10.9 27.729 24.505 37.117 40.808 7.2 12.5 12.11 25.86 14.754 40.055 1.679 9.012 2.429 18.099 2.15 27.253-.497 16.43-3.938 32.224-10.504 47.315-6.802 15.63-16.358 29.356-28.615 41.188-2.494 2.408-5.214 4.584-7.83 6.867a3.961 3.961 0 0 0-.114-.111"/>
</svg>

<?xml version="1.0" encoding="UTF-8" standalone="no"?>
<svg width="256px" height="274px" viewBox="0 0 256 274" version="1.1" xmlns="http://www.w3.org/2000/svg" xmlns:xlink="http://www.w3.org/1999/xlink" preserveAspectRatio="xMidYMid">
    <g>
        <g transform="translate(0.000000, 11.000000)">
            <path d="M50.424,22.748 C48.942,26.245 47.272,29.677 46.014,33.253 C42.963,41.929 42.188,50.894 42.952,60.041 C43.56,67.309 44.97,74.373 47.778,81.122 C51.642,90.409 57.716,98.027 65.439,104.389 C73.031,110.642 81.546,115.373 90.426,119.491 C101.6,124.672 113.183,128.8 124.801,132.846 C136.913,137.063 148.872,141.666 160.221,147.708 C167.958,151.827 175.252,156.582 181.456,162.851 C189.176,170.65 193.801,179.939 195.199,190.881 C197.031,205.227 192.869,217.621 183.318,228.289 C174.237,238.432 162.795,244.705 149.78,248.257 C139.743,250.997 129.532,251.593 119.211,250.391 C98.836,248.017 80.927,239.717 64.646,227.567 C61.923,225.534 59.376,223.264 56.749,221.102 C56.407,220.82 56.083,220.514 55.735,220.239 C53.697,218.629 51.709,218.523 49.643,220.086 C48.538,220.922 47.601,221.978 46.444,223.071 C43.965,220.82 41.349,218.592 38.898,216.196 C21.876,199.556 10.22,179.763 4.136,156.727 C1.854,148.087 0.544,139.296 0.141,130.364 C-0.928,106.693 4.08,84.393 15.304,63.53 C23.926,47.505 35.515,33.966 49.921,22.843 C50.035,22.755 50.174,22.7 50.302,22.629 C50.343,22.668 50.384,22.708 50.424,22.748" fill="#729544"></path>
            <path d="M208.879,223.173 C209.872,220.71 210.952,218.277 211.842,215.778 C213.919,209.95 214.914,203.924 214.959,197.734 C215.023,189.086 213.873,180.64 210.878,172.489 C207.644,163.685 202.489,156.145 195.808,149.618 C188.356,142.338 179.704,136.761 170.532,131.938 C157.575,125.126 143.943,119.922 130.152,115.116 C120.873,111.883 111.514,108.872 102.514,104.887 C93.794,101.027 85.41,96.596 78.091,90.382 C71.026,84.385 65.658,77.18 63.083,68.192 C58.324,51.582 60.994,36.283 71.725,22.601 C77.658,15.036 85.341,9.746 94.163,6.059 C101.727,2.898 109.641,1.199 117.788,0.46 C123.512,-0.06 129.239,-0.186 134.961,0.327 C143.467,1.089 151.719,3.047 159.76,5.901 C168.781,9.102 177.374,13.19 185.442,18.362 C186,18.719 186.595,19.03 187.201,19.299 C189.322,20.239 191.275,19.932 192.915,18.298 C193.766,17.45 194.451,16.435 195.322,15.358 C197.468,16.798 199.733,18.245 201.921,19.799 C217.262,30.698 229.65,44.303 239.038,60.606 C246.238,73.106 251.148,86.467 253.792,100.661 C255.471,109.673 256.221,118.76 255.943,127.914 C255.445,144.344 252.004,160.138 245.438,175.229 C238.636,190.859 229.08,204.585 216.823,216.417 C214.329,218.825 211.609,221.001 208.993,223.284 C208.956,223.246 208.917,223.209 208.879,223.173" fill="#93BD5A"></path>
        </g>
    </g>
</svg>
